packages/sources/icons/src/vitamix/file-fill.svg

<svg width="16" height="16" viewBox="0 0 16 16" fill="none" xmlns="http://www.w3.org/2000/svg">
<path fill-rule="evenodd" clip-rule="evenodd" d="M14 13.9953V6.00001H10C9.63181 6.00001 9.33333 5.70153 9.33333 5.33334V1.33334H2.66533C2.298 1.33334 2 1.63668 2 1.99468V14.0053C2.00037 14.3707 2.29665 14.6667 2.662 14.6667H13.338C13.5148 14.6654 13.6839 14.594 13.808 14.4681C13.9322 14.3422 14.0012 14.1722 14 13.9953ZM10.6667 4.66668H14L10.6667 1.33535V4.66668Z" fill="#001018"/>
</svg>

<svg width="16" height="16" fill="none" xmlns="http://www.w3.org/2000/svg"><path fill-rule="evenodd" clip-rule="evenodd" d="M14 13.995V6h-4a.667.667 0 0 1-.667-.667v-4H2.665A.668.668 0 0 0 2 1.995v12.01c0 .366.297.662.662.662h10.676a.667.667 0 0 0 .662-.672zm-3.333-9.328H14l-3.333-3.332v3.332z" fill="#001018"/></svg>
